icon-themes/sifr_svg/cmd/sc_imagebutton.svg

<svg viewBox="0 0 16 16" xmlns="http://www.w3.org/2000/svg"><g fill="#555753"><path d="m1 4v9h14v-9zm3.5 1c.8284271 0 1.5.6715729 1.5 1.5s-.6715729 1.5-1.5 1.5-1.5-.6715729-1.5-1.5.6715729-1.5 1.5-1.5zm6.5 0 3 3v1 3h-3-9v-1l2-2 2 2z"/><path d="m4.5 5c-.8284271 0-1.5.6715729-1.5 1.5s.6715729 1.5 1.5 1.5 1.5-.6715729 1.5-1.5-.6715729-1.5-1.5-1.5zm6.5 0-5 6-2-2-2 2v1h12v-4z" opacity=".35"/></g></svg>

<svg xmlns="http://www.w3.org/2000/svg" viewBox="0 0 16 16">
  <path
     style="fill:#555753"
     d="M 1 4 L 1 13 L 15 13 L 15 4 L 1 4 z M 4.5 5 C 5.3284271 5 6 5.6715729 6 6.5 C 6 7.3284271 5.3284271 8 4.5 8 C 3.6715729 8 3 7.3284271 3 6.5 C 3 5.6715729 3.6715729 5 4.5 5 z M 11 5 L 14 8 L 14 9 L 14 12 L 11 12 L 2 12 L 2 11 L 4 9 L 6 11 L 11 5 z "
     />
  <path
     style="opacity:0.35;fill:#555753"
     d="M 4.5 5 C 3.6715729 5 3 5.6715729 3 6.5 C 3 7.3284271 3.6715729 8 4.5 8 C 5.3284271 8 6 7.3284271 6 6.5 C 6 5.6715729 5.3284271 5 4.5 5 z M 11 5 L 6 11 L 4 9 L 2 11 L 2 12 L 14 12 L 14 8 L 11 5 z "
     />
</svg>
